assets/bank-tab/Asset/FASTag.svg

<svg width="24" height="24" viewBox="0 0 24 24" fill="none" xmlns="http://www.w3.org/2000/svg">
<g clip-path="url(#clip0_5371_1110)">
<path fill-rule="evenodd" clip-rule="evenodd" d="M13.3435 8.71653C14.4237 8.71653 15.3475 9.47976 15.5328 10.5254L16.1771 14.1612C16.2232 14.4214 16.4531 14.6114 16.722 14.6114C17.5811 14.6114 18.2775 15.2957 18.2775 16.1397V19.6331C18.2775 20.8389 17.2826 21.8164 16.0553 21.8164C15.8712 21.8164 15.722 21.963 15.722 22.1439V22.9062C15.722 23.5081 15.2254 23.996 14.6128 23.996H14.2387C13.6261 23.996 13.1295 23.5081 13.1295 22.9062C13.1295 22.3043 12.6329 21.8164 12.0203 21.8164H6.46084C5.84824 21.8164 5.35163 22.3043 5.35163 22.9062C5.35163 23.5081 4.85502 23.996 4.24243 23.996H3.86828C3.25569 23.996 2.75908 23.5081 2.75908 22.9062V21.8526C2.75908 21.8326 2.74256 21.8164 2.72219 21.8164C1.49491 21.8164 0.5 20.8389 0.5 19.6331V16.1397C0.5 15.2957 1.19644 14.6114 2.05553 14.6114C2.15255 14.6114 2.23552 14.5429 2.25216 14.449L2.94744 10.5254C3.13273 9.47975 4.05648 8.71653 5.1367 8.71653H13.3435ZM15.1495 19.149C14.9914 19.2461 14.8011 19.2691 14.6147 19.2691H14.3116C14.1252 19.2691 13.9349 19.2461 13.7769 19.149C13.4106 18.924 13.1669 18.5241 13.1669 18.0683C13.1669 17.365 13.7473 16.7947 14.4632 16.7947C15.1791 16.7947 15.7595 17.365 15.7595 18.0683C15.7595 18.5241 15.5158 18.924 15.1495 19.149ZM5.53663 18.0683C5.53663 18.5241 5.29297 18.924 4.92665 19.149C4.76862 19.2461 4.5783 19.2691 4.39192 19.2691H4.08879C3.90242 19.2691 3.71209 19.2461 3.55407 19.149C3.18775 18.924 2.94408 18.5241 2.94408 18.0683C2.94408 17.365 3.52444 16.7947 4.24036 16.7947C4.95627 16.7947 5.53663 17.365 5.53663 18.0683ZM5.82223 10.6815C5.28256 10.6815 4.82092 11.0625 4.7278 11.5848L4.46894 13.0367C4.34983 13.7048 4.87306 14.3168 5.56337 14.3168H12.9179C13.6082 14.3168 14.1315 13.7048 14.0123 13.0367L13.7535 11.5848C13.6604 11.0625 13.1987 10.6815 12.659 10.6815H5.82223Z" fill="#297034"/>
<path d="M8.1068 1.60804C7.70454 1.31361 7.62138 0.754533 7.92105 0.359308C8.22072 -0.035917 8.78975 -0.117627 9.19201 0.176805L20.8593 8.71658H21.9444V8.72027C22.8131 8.77642 23.5 9.48649 23.5 10.3542V22.3625C23.5 23.2669 22.7538 24 21.8334 24C20.9129 24 20.1667 23.2669 20.1667 22.3625V10.4352L8.1068 1.60804Z" fill="#297034"/>
</g>
<defs>
<clipPath id="clip0_5371_1110">
<rect width="24" height="24" fill="white"/>
</clipPath>
</defs>
</svg>

<svg xmlns="http://www.w3.org/2000/svg" width="24" height="24" fill="none" viewBox="0 0 24 24"><g fill="#297034" clip-path="url(#a)"><path fill-rule="evenodd" d="M13.344 8.717c1.08 0 2.004.763 2.189 1.808l.644 3.636a.55.55 0 0 0 .545.45c.86 0 1.555.685 1.555 1.529v3.493c0 1.206-.994 2.183-2.222 2.183a.33.33 0 0 0-.333.328v.762a1.1 1.1 0 0 1-1.11 1.09h-.373a1.1 1.1 0 0 1-1.11-1.09 1.1 1.1 0 0 0-1.109-1.09H6.46a1.1 1.1 0 0 0-1.108 1.09 1.1 1.1 0 0 1-1.11 1.09h-.374a1.1 1.1 0 0 1-1.109-1.09v-1.053a.037.037 0 0 0-.037-.037C1.495 21.816.5 20.84.5 19.633V16.14c0-.844.696-1.529 1.556-1.529.097 0 .18-.068.196-.162l.695-3.924c.186-1.045 1.11-1.808 2.19-1.808zm1.806 10.432c-.159.097-.349.12-.535.12h-.303c-.187 0-.377-.023-.535-.12a1.27 1.27 0 0 1-.61-1.08c0-.704.58-1.274 1.296-1.274s1.297.57 1.297 1.273c0 .456-.244.856-.61 1.081m-9.613-1.08c0 .455-.244.855-.61 1.08-.158.097-.349.12-.535.12h-.303c-.187 0-.377-.023-.535-.12a1.27 1.27 0 0 1-.61-1.08c0-.704.58-1.274 1.296-1.274s1.297.57 1.297 1.273m.285-7.387c-.54 0-1.001.38-1.094.903l-.26 1.452a1.1 1.1 0 0 0 1.095 1.28h7.355c.69 0 1.214-.612 1.094-1.28l-.258-1.452a1.106 1.106 0 0 0-1.095-.904z" clip-rule="evenodd"/><path d="M8.107 1.608A.88.88 0 0 1 7.92.359.92.92 0 0 1 9.192.177l11.667 8.54h1.085v.003a1.65 1.65 0 0 1 1.556 1.634v12.009c0 .904-.746 1.637-1.667 1.637-.92 0-1.666-.733-1.666-1.637V10.435z"/></g><defs><clipPath id="a"><path fill="#fff" d="M0 0h24v24H0z"/></clipPath></defs></svg>
